assets/images/inst-bl.svg

<svg width="18" height="18" viewBox="0 0 18 18" fill="none" xmlns="http://www.w3.org/2000/svg">
<path d="M8.99999 5.93994C7.33499 5.93994 5.98499 7.28994 5.98499 8.95494C5.98499 10.6199 7.33499 11.9699 8.99999 11.9699C10.665 11.9699 12.015 10.6199 12.015 8.95494C12.015 7.28994 10.665 5.93994 8.99999 5.93994Z" fill="#0029FF"/>
<path d="M12.15 0H5.85C2.655 0 0 2.655 0 5.85V12.105C0 15.345 2.655 17.955 5.85 17.955H12.105C15.345 17.955 17.955 15.3 17.955 12.105V5.85C18 2.655 15.345 0 12.15 0ZM9 13.68C6.435 13.68 4.32 11.61 4.32 9C4.32 6.39 6.435 4.32 9 4.32C11.565 4.32 13.68 6.39 13.68 9C13.68 11.565 11.61 13.68 9 13.68ZM13.59 5.445C12.96 5.445 12.465 4.905 12.465 4.32C12.465 3.735 13.005 3.15 13.59 3.15C14.22 3.15 14.715 3.69 14.715 4.275C14.715 4.95 14.22 5.445 13.59 5.445Z" fill="#0029FF"/>
</svg>

<svg width="18" height="18" fill="none" xmlns="http://www.w3.org/2000/svg"><path d="M9 5.94a3.015 3.015 0 100 6.03 3.015 3.015 0 000-6.03z" fill="#0029FF"/><path d="M12.15 0h-6.3C2.655 0 0 2.655 0 5.85v6.255c0 3.24 2.655 5.85 5.85 5.85h6.255c3.24 0 5.85-2.655 5.85-5.85V5.85C18 2.655 15.345 0 12.15 0zM9 13.68A4.676 4.676 0 014.32 9c0-2.61 2.115-4.68 4.68-4.68 2.565 0 4.68 2.07 4.68 4.68 0 2.565-2.07 4.68-4.68 4.68zm4.59-8.235c-.63 0-1.125-.54-1.125-1.125s.54-1.17 1.125-1.17c.63 0 1.125.54 1.125 1.125 0 .675-.495 1.17-1.125 1.17z" fill="#0029FF"/></svg>
